build/svg/chart2/res/reglog.svg

<svg height="30" viewBox="0 0 15 17.307692" width="30" xmlns="http://www.w3.org/2000/svg"><path d="m.000001 1.153846h14.999999v15h-14.999999z" fill="#fff"/><path d="m1 1v28h28v-28zm1 1h26v26h-26z" fill="#232629" transform="matrix(.57692303 0 0 .57692307 -1.153846 0)"/><g fill="#762572"><path d="m.576924 13.269231h1.153846v1.153846h-1.153846z"/><path d="m2.8846157 10.384615h1.153846v1.153846h-1.153846z"/><path d="m3.4615387 6.346154h1.153846v1.1538457h-1.153846z"/><path d="m7.4999999 6.346154h1.1538459v1.1538457h-1.1538459z"/><path d="m8.653846 2.8846155h1.1538459v1.1538461h-1.1538459z"/><path d="m12.692307 3.4615384h1.153846v1.1538461h-1.153846z"/></g><path d="m1.4423081 16.153846c.0042303-6.3461538 6.0576919-13.0577169 13.5576909-12.9807691" fill="none" stroke="#e95420" stroke-width=".576923"/></svg>

<svg height="30" viewBox="0 0 15 17.308" width="30" xmlns="http://www.w3.org/2000/svg"><path d="M0 1.154h15v15H0z" fill="#fff"/><path d="M-.577.577V16.73h16.154V.577zM0 1.154h15v15H0z" fill="#232629"/><g fill="#762572"><path d="M.577 13.27H1.73v1.153H.577zM2.885 10.385h1.153v1.153H2.885zM3.462 6.346h1.153V7.5H3.462zM7.5 6.346h1.154V7.5H7.5zM8.654 2.885h1.154v1.153H8.654zM12.692 3.462h1.154v1.153h-1.154z"/></g><path d="M1.442 16.154C1.447 9.808 7.5 3.096 15 3.174" fill="none" stroke="#e95420" stroke-width=".577"/></svg>
